img/icons/page/layout-screen-horizontal.svg

<svg viewBox="0 0 16 16" xmlns="http://www.w3.org/2000/svg"><path d="m8.15 4.15c0.195-0.195 0.512-0.195 0.707 0l3 3c0.195 0.195 0.195 0.512 0 0.707l-3 3c-0.195 0.195-0.512 0.195-0.707 0-0.195-0.195-0.195-0.512 0-0.707l2.15-2.15h-5.79c-0.276 0-0.5-0.224-0.5-0.5 0-0.276 0.224-0.5 0.5-0.5h5.79l-2.15-2.15c-0.195-0.195-0.195-0.512 0-0.707z" fill="#000"/><path d="m0 5.8c0-1.68 0-2.52 0.327-3.16 0.288-0.564 0.747-1.02 1.31-1.31 0.642-0.327 1.48-0.327 3.16-0.327h6.4c1.68 0 2.52 0 3.16 0.327 0.564 0.288 1.02 0.747 1.31 1.31 0.327 0.642 0.327 1.48 0.327 3.16v3.4c0 1.68 0 2.52-0.327 3.16-0.288 0.564-0.746 1.02-1.31 1.31-0.642 0.327-1.48 0.327-3.16 0.327h-6.4c-1.68 0-2.52 0-3.16-0.327-0.564-0.288-1.02-0.747-1.31-1.31-0.327-0.642-0.327-1.48-0.327-3.16v-3.4zm4.8-3.8h6.4c0.857 0 1.44 7.8e-4 1.89 0.0376 0.438 0.0358 0.663 0.101 0.819 0.18 0.376 0.192 0.682 0.498 0.874 0.874 0.0797 0.156 0.145 0.381 0.18 0.819 0.0368 0.45 0.0376 1.03 0.0376 1.89v3.4c0 0.857-8e-4 1.44-0.0376 1.89-0.0358 0.438-0.101 0.663-0.18 0.819-0.192 0.376-0.498 0.682-0.874 0.874-0.156 0.0796-0.381 0.145-0.819 0.18-0.45 0.0368-1.03 0.0375-1.89 0.0375h-6.4c-0.857 0-1.44-7e-4 -1.89-0.0375-0.438-0.0358-0.663-0.101-0.819-0.18-0.376-0.192-0.682-0.498-0.874-0.874-0.0797-0.156-0.145-0.381-0.18-0.819-0.0368-0.45-0.0376-1.03-0.0376-1.89v-3.4c0-0.857 7.8e-4 -1.44 0.0376-1.89 0.0358-0.438 0.101-0.663 0.18-0.819 0.192-0.376 0.498-0.682 0.874-0.874 0.156-0.0797 0.381-0.145 0.819-0.18 0.45-0.0368 1.03-0.0376 1.89-0.0376z" clip-rule="evenodd" fill="#000" fill-rule="evenodd"/></svg>

<svg xmlns="http://www.w3.org/2000/svg" viewBox="0 0 16 16" fill="none">
  <path fill="#fff"
    d="M8.146 4.147a.5.5 0 0 1 .708 0l3 3a.5.5 0 0 1 0 .707l-3 3a.5.5 0 1 1-.708-.707L10.293 8H4.5a.5.5 0 1 1 0-1h5.793L8.146 4.854a.5.5 0 0 1 0-.707Z" />
  <path fill="#fff" fill-rule="evenodd"
    d="M0 5.8c0-1.68 0-2.52.327-3.162a3 3 0 0 1 1.311-1.31C2.28 1 3.12 1 4.8 1h6.4c1.68 0 2.52 0 3.162.327a3 3 0 0 1 1.311 1.311C16 3.28 16 4.12 16 5.8v3.4c0 1.68 0 2.52-.327 3.162a3 3 0 0 1-1.311 1.311C13.72 14 12.88 14 11.2 14H4.8c-1.68 0-2.52 0-3.162-.327a3 3 0 0 1-1.311-1.31C0 11.72 0 10.88 0 9.2V5.8ZM4.8 2h6.4c.857 0 1.439.001 1.889.038.438.036.663.1.819.18a2 2 0 0 1 .874.874c.08.157.145.38.18.82C15 4.361 15 4.943 15 5.8v3.4c0 .857 0 1.44-.038 1.89-.035.438-.1.662-.18.818a2 2 0 0 1-.874.874c-.156.08-.38.145-.819.18-.45.037-1.032.038-1.889.038H4.8c-.857 0-1.439 0-1.889-.037-.438-.036-.663-.101-.819-.18a2 2 0 0 1-.874-.875c-.08-.156-.145-.38-.18-.819C1 10.64 1 10.057 1 9.2V5.8c0-.856 0-1.439.038-1.889.035-.438.1-.662.18-.819a2 2 0 0 1 .874-.874c.156-.08.38-.144.819-.18C3.361 2 3.943 2 4.8 2Z"
    clip-rule="evenodd" />
</svg>
